!!!SOCIAL_FUNCTION:	songs of social dance
!!!PDT:	1939
!!!OTL: No_77_"Do_Not_Try_to_Imitate_Me".krn
!!!LANG: Non-Tone
!!!LING_GROUP: Wakashan
!!!REG: Pacific Northwest
**kern
*staff1
=1-
*clefF4
*k[f#c#g#d#a#]
*M2/4
4r
8d#\L
8d#\J
=2!|:
4d#\
8d#\L
8e\J
=3
4.d#\
8B\
=4||
*M3/4
4B\
8c#\
8r
8c#\L
8c#\J
=5||
*M2/4
4c#\
8c#\L
8d#\J
=6
4.c#\
8B\
=7||
*M3/4
4B\
8c#\
8r
8c#\L
8c#\J
=8
4c#\
16c#\
16r
8c#\
8c#\L
8c#\J
=9||
*M2/4
4c#\
8B\L
8A#\J
=10||
*M3/4
4B\
8B\
8r
8c#\L
8c#\J
=11
4c#\
16c#\
16r
8c#\
8c#\L
8c#\J
=12||
*M2/4
4c#\
8c#\L
8c#\J
=13
4c#\
8d#\
8r
=14
4r
8d#\L
8d#\J
==:|!
*-
